X:1
T:Title
L:1/8
Q:1/4=100
M:3/4
K:E
V:1 treble nm="Church Organ, Staff"
V:1
 B2 e>c B2 | G2 B>F F2 | G2 E3 G | B>c d4 | B2 f>c c2 | d2 e>B B2 | B2 d3 G | G^A B4 | B2 B>G F2 | %9
w: By~J.~F.~Bridge * * *|||||||||
 E2 e>c B2 | A2 c3 B | AB c4 | F2 G>F E2 | F2 G>F E2 | F2 A3 G | FG F4- |[M:6/8] F2 E- E/F/GF | %17
w: ||||||||
 EFG- G/ z/ AB- | B2 E- E/F/GF | EFG- G/ z/ AB- | B2 e- e3/2 z/ c- | cBA- A/B/cB- | BBe dcA- | %23
w: ||||||
 A/B/ c2 B3 | .B3 EFG | F2 E ABc | B2 A edc | B2 G AGF | E3 z3 |] %29
w: ||||||

